dist/assets/images/icons/tabs_info.svg

<svg width="52" height="47" viewBox="0 0 52 47" fill="none" xmlns="http://www.w3.org/2000/svg">
<path d="M17.1875 42.0625V10.3125H34.8125V19.3125" stroke="#79655E" stroke-width="2" stroke-miterlimit="10" stroke-linecap="round" stroke-linejoin="round"/>
<path d="M34.8125 38.4375V42.0625" stroke="#79655E" stroke-width="2" stroke-miterlimit="10" stroke-linecap="round" stroke-linejoin="round"/>
<path d="M21.5625 14.8125H30.75" stroke="#79655E" stroke-width="2" stroke-miterlimit="10" stroke-linecap="round" stroke-linejoin="round" stroke-dasharray="0.53 0.53"/>
<path d="M21.5625 18.125H30.75" stroke="#79655E" stroke-width="2" stroke-miterlimit="10" stroke-linecap="round" stroke-linejoin="round" stroke-dasharray="0.53 0.53"/>
<path d="M21.5625 21.4375H30.75" stroke="#79655E" stroke-width="2" stroke-miterlimit="10" stroke-linecap="round" stroke-linejoin="round" stroke-dasharray="0.53 0.53"/>
<path d="M21.5625 24.6875H30.75" stroke="#79655E" stroke-width="2" stroke-miterlimit="10" stroke-linecap="round" stroke-linejoin="round" stroke-dasharray="0.53 0.53"/>
<path d="M21.5625 28H30.75" stroke="#79655E" stroke-width="2" stroke-miterlimit="10" stroke-linecap="round" stroke-linejoin="round" stroke-dasharray="0.53 0.53"/>
<path d="M21.5625 31.3125H30.75" stroke="#79655E" stroke-width="2" stroke-miterlimit="10" stroke-linecap="round" stroke-linejoin="round" stroke-dasharray="0.53 0.53"/>
<path d="M28.1875 42.0625V35.3125H23.8125V42.0625" stroke="#79655E" stroke-width="2" stroke-miterlimit="10" stroke-linecap="round" stroke-linejoin="round"/>
<path d="M17.1875 21.4375H5.375V42.0625" stroke="#79655E" stroke-width="2" stroke-miterlimit="10" stroke-linecap="round" stroke-linejoin="round"/>
<path d="M13.625 24.6875H8.9375" stroke="#79655E" stroke-width="2" stroke-miterlimit="10" stroke-linecap="round" stroke-linejoin="round" stroke-dasharray="0.53 0.53"/>
<path d="M13.625 28H8.9375" stroke="#79655E" stroke-width="2" stroke-miterlimit="10" stroke-linecap="round" stroke-linejoin="round" stroke-dasharray="0.53 0.53"/>
<path d="M13.625 31.3125H8.9375" stroke="#79655E" stroke-width="2" stroke-miterlimit="10" stroke-linecap="round" stroke-linejoin="round" stroke-dasharray="0.53 0.53"/>
<path d="M13.625 34.5625H8.9375" stroke="#79655E" stroke-width="2" stroke-miterlimit="10" stroke-linecap="round" stroke-linejoin="round" stroke-dasharray="0.53 0.53"/>
<path d="M13.625 37.875H8.9375" stroke="#79655E" stroke-width="2" stroke-miterlimit="10" stroke-linecap="round" stroke-linejoin="round" stroke-dasharray="0.53 0.53"/>
<path d="M1 42.0625H51" stroke="#79655E" stroke-width="2" stroke-miterlimit="10" stroke-linecap="round" stroke-linejoin="round"/>
<path d="M24.375 45.875H45.6875" stroke="#79655E" stroke-width="2" stroke-miterlimit="10" stroke-linecap="round" stroke-linejoin="round"/>
<path d="M5.0625 45.875H12" stroke="#79655E" stroke-width="2" stroke-miterlimit="10" stroke-linecap="round" stroke-linejoin="round"/>
<path d="M16.125 45.875H19.375H20.875" stroke="#79655E" stroke-width="2" stroke-miterlimit="10" stroke-linecap="round" stroke-linejoin="round" stroke-dasharray="0.6 0.6"/>
<path d="M20.875 10.3125V7.25H30.75V10.3125" stroke="#79655E" stroke-width="2" stroke-miterlimit="10" stroke-linecap="round" stroke-linejoin="round"/>
<path d="M25.8125 7.25V1.5" stroke="#79655E" stroke-width="2" stroke-miterlimit="10" stroke-linecap="round" stroke-linejoin="round"/>
<path d="M35.0625 27.0529L40.351 32.4375L48.8125 23.6875" stroke="#79655E" stroke-width="2" stroke-miterlimit="10" stroke-linecap="round" stroke-linejoin="round"/>
</svg>

<svg width="52" height="47" fill="none" xmlns="http://www.w3.org/2000/svg"><path d="M17.188 42.063v-31.75h17.625v9m0 19.125v3.624" stroke="#79655E" stroke-width="2" stroke-miterlimit="10" stroke-linecap="round" stroke-linejoin="round"/><path d="M21.563 14.813h9.187m-9.187 3.312h9.187m-9.187 3.313h9.187m-9.187 3.25h9.187M21.563 28h9.187m-9.187 3.313h9.187" stroke="#79655E" stroke-width="2" stroke-miterlimit="10" stroke-linecap="round" stroke-linejoin="round" stroke-dasharray="0.53 0.53"/><path d="M28.188 42.063v-6.75h-4.375v6.75m-6.625-20.625H5.374v20.625" stroke="#79655E" stroke-width="2" stroke-miterlimit="10" stroke-linecap="round" stroke-linejoin="round"/><path d="M13.625 24.688H8.937M13.625 28H8.937m4.688 3.313H8.937m4.688 3.25H8.937m4.688 3.312H8.937" stroke="#79655E" stroke-width="2" stroke-miterlimit="10" stroke-linecap="round" stroke-linejoin="round" stroke-dasharray="0.53 0.53"/><path d="M1 42.063h50m-26.625 3.812h21.313m-40.625 0H12" stroke="#79655E" stroke-width="2" stroke-miterlimit="10" stroke-linecap="round" stroke-linejoin="round"/><path d="M16.125 45.875h4.75" stroke="#79655E" stroke-width="2" stroke-miterlimit="10" stroke-linecap="round" stroke-linejoin="round" stroke-dasharray="0.6 0.6"/><path d="M20.875 10.313V7.25h9.875v3.063M25.813 7.25V1.5m9.25 25.553l5.288 5.384 8.462-8.75" stroke="#79655E" stroke-width="2" stroke-miterlimit="10" stroke-linecap="round" stroke-linejoin="round"/></svg>
